Gurmukhi/0A1C.svg

<svg enable-background="new 0 0 336 592" viewBox="0 0 336 592" xmlns="http://www.w3.org/2000/svg"><path d="m201.987976 278.854248c13.664307.018738 13.663834.018738 13.662979-13.064392-.000946-14.164078-.18367-28.331833.100403-42.490204.096146-4.792007-1.319183-6.253082-6.174011-6.230911-40.32515.184341-80.651886.031433-120.976868.233597-4.807426.024109-7.422989-1.365219-8.664368-6.01561-.940467-3.523102-2.540466-6.865433-3.737693-10.326004-1.225991-3.543701.218216-5.468033 3.867096-5.766525 1.657196-.135575 3.329528-.11644 4.994987-.116211 59.655762.0083 119.311661.084686 178.967026-.065995 5.557861-.014038 9.224701 1.091858 10.514343 7.062714.659332 3.052643 2.391266 5.857163 3.337708 8.868317 1.250885 3.97969-.28122 6.11296-4.482636 6.167877-8.663605.113266-17.33435.208237-25.992813-.029068-4.554687-.124832-6.110702 1.434936-5.972107 6.091934.827805 27.813004.437912 55.630249.12677 83.451569-.279404 24.985046-.524292 49.979522.231217 74.968689.099548 3.29245 1.64952 7.383453-2.035386 9.660614-3.565857 2.203582-6.020172-1.689606-9.0681-2.532471-12.88182-3.562073-16.229599-11.873657-15.372116-24.899323 1.288849-19.578216.210633-39.305419.429139-58.966095.049575-4.460815-1.399353-5.693298-5.724701-5.64685-18.661133.200439-37.326737.199737-55.988038.010193-4.26387-.043305-5.912811 1.05838-5.783828 5.590606.293762 10.322724.264129 20.66449.022171 30.990479-.415329 17.725006-4.289078 34.274017-16.774796 47.858124-9.455024 10.286834-9.351265 10.382202-20.008919 1.660675-9.826026-8.040985-9.827476-8.042328-1.164436-17.291199 8.458901-9.030884 12.598152-19.969421 13.245117-32.09848.54081-10.138886.121689-20.325623.36361-30.485535.090644-3.807342-1.149987-5.175781-5.09404-5.403473-5.469734-.315826-11.150803-1.062683-13.867188-7.094421-1.96215-4.356903-.878753-8.582459 1.101105-12.503815 5.634506-11.159851 14.323807-19.139923 26.021339-23.600525 8.926819-3.404068 15.089402.160279 16.947083 9.466065.129913.650726.184997 1.318817.239502 1.98175.868683 10.565613.867355 10.56192 11.723297 10.559937 13.496704-.002472 26.993408.002136 40.987152.003967z"/></svg>

<svg version="1.1" id="Layer_1" xmlns="http://www.w3.org/2000/svg" xmlns:xlink="http://www.w3.org/1999/xlink" x="0px" y="0px"
	 width="100%" viewBox="0 0 336 592" enable-background="new 0 0 336 592" xml:space="preserve">
<path fill="#000000" opacity="1.000000" stroke="none" 
	d="
M201.987976,278.854248 
	C215.652283,278.872986 215.651810,278.872986 215.650955,265.789856 
	C215.650009,251.625778 215.467285,237.458023 215.751358,223.299652 
	C215.847504,218.507645 214.432175,217.046570 209.577347,217.068741 
	C169.252197,217.253082 128.925461,217.100174 88.600479,217.302338 
	C83.793053,217.326447 81.177490,215.937119 79.936111,211.286728 
	C78.995644,207.763626 77.395645,204.421295 76.198418,200.960724 
	C74.972427,197.417023 76.416634,195.492691 80.065514,195.194199 
	C81.722710,195.058624 83.395042,195.077759 85.060501,195.077988 
	C144.716263,195.086288 204.372162,195.162674 264.027527,195.011993 
	C269.585388,194.997955 273.252228,196.103851 274.541870,202.074707 
	C275.201202,205.127350 276.933136,207.931870 277.879578,210.943024 
	C279.130463,214.922714 277.598358,217.055984 273.396942,217.110901 
	C264.733337,217.224167 256.062592,217.319138 247.404129,217.081833 
	C242.849442,216.957001 241.293427,218.516769 241.432022,223.173767 
	C242.259827,250.986771 241.869934,278.804016 241.558792,306.625336 
	C241.279388,331.610382 241.034500,356.604858 241.790009,381.594025 
	C241.889557,384.886475 243.439529,388.977478 239.754623,391.254639 
	C236.188766,393.458221 233.734451,389.565033 230.686523,388.722168 
	C217.804703,385.160095 214.456924,376.848511 215.314407,363.822845 
	C216.603256,344.244629 215.525040,324.517426 215.743546,304.856750 
	C215.793121,300.395935 214.344193,299.163452 210.018845,299.209900 
	C191.357712,299.410339 172.692108,299.409637 154.030807,299.220093 
	C149.766937,299.176788 148.117996,300.278473 148.246979,304.810699 
	C148.540741,315.133423 148.511108,325.475189 148.269150,335.801178 
	C147.853821,353.526184 143.980072,370.075195 131.494354,383.659302 
	C122.039330,393.946136 122.143089,394.041504 111.485435,385.319977 
	C101.659409,377.278992 101.657959,377.277649 110.320999,368.028778 
	C118.779900,358.997894 122.919151,348.059357 123.566116,335.930298 
	C124.106926,325.791412 123.687805,315.604675 123.929726,305.444763 
	C124.020370,301.637421 122.779739,300.268982 118.835686,300.041290 
	C113.365952,299.725464 107.684883,298.978607 104.968498,292.946869 
	C103.006348,288.589966 104.089745,284.364410 106.069603,280.443054 
	C111.704109,269.283203 120.393410,261.303131 132.090942,256.842529 
	C141.017761,253.438461 147.180344,257.002808 149.038025,266.308594 
	C149.167938,266.959320 149.223022,267.627411 149.277527,268.290344 
	C150.146210,278.855957 150.144882,278.852264 161.000824,278.850281 
	C174.497528,278.847809 187.994232,278.852417 201.987976,278.854248 
z"/>
</svg>
